TV/Source/Dvojka HD - Dark.svg

<svg height="6.977333" viewBox="0 0 2.6475618 1.8460627" width="10.006533" xmlns="http://www.w3.org/2000/svg" xmlns:xlink="http://www.w3.org/1999/xlink"><clipPath id="a"><path d="m84.719 508.062h9.747v8.6h-9.747z"/></clipPath><path d="m0 0v-.424h-.251v.424h-.24v-1.058h.24v.442h.251v-.442h.239v1.058z" transform="matrix(.35277777 0 0 -.35277777 2.224652 .00175)"/><g clip-path="url(#a)" transform="matrix(.35277777 0 0 -.35277777 -30.437525 181.67302)"><g transform="translate(93.2775 514.0787)"><path d="m0 0c .011-.003.029-.003.042-.003.115 0 .216.097.216.389 0 .217-.066.349-.21.349-.017 0-.033 0-.048-.005zm-.24.88c.061.012.148.02.244.02.155 0 .263-.031.342-.094.106-.082.161-.222.161-.427 0-.214-.064-.366-.172-.448-.082-.069-.205-.102-.377-.102-.075 0-.15.006-.198.011z"/></g><g transform="translate(91.7131 510.8517)"><path d="m0 0s-2.105.001-2.105.001c0 .232.671.533 1.24.862.245.142 1.208.584 1.208 1.602 0 .945-.884 1.662-1.892 1.662-.951 0-1.777-.683-1.777-.683s.009-.029.24-.612c.088-.224.307-.327.537-.214.31.153.696.357 1 .357.412 0 .698-.274.698-.569 0-.392-.411-.561-1.101-.945-.667-.371-1.445-.952-1.445-1.963v-.236c0-.203.165-.368.368-.368h3.328v.807c0 .165-.134.299-.299.299"/></g><g transform="translate(86.9776 513.9623)"><path d="m0 0c-.385 0-.698-.316-.698-.705s.313-.705.698-.705.698.316.698.705-.313.705-.698.705"/></g><g transform="translate(86.9776 511.829)"><path d="m0 0c-.385 0-.698-.316-.698-.705s.313-.705.698-.705.698.316.698.705-.313.705-.698.705"/></g></g></svg>

<?xml version="1.0" encoding="UTF-8" standalone="no"?>
<svg
   xmlns:dc="http://purl.org/dc/elements/1.1/"
   xmlns:cc="http://creativecommons.org/ns#"
   xmlns:rdf="http://www.w3.org/1999/02/22-rdf-syntax-ns#"
   xmlns:svg="http://www.w3.org/2000/svg"
   xmlns="http://www.w3.org/2000/svg"
   xmlns:sodipodi="http://sodipodi.sourceforge.net/DTD/sodipodi-0.dtd"
   xmlns:inkscape="http://www.inkscape.org/namespaces/inkscape"
   height="6.9773331"
   width="10.006533"
   version="1.1"
   viewBox="0 0 2.6475618 1.8460627"
   id="svg18"
   sodipodi:docname="Dvojka HD - Dark.svg"
   inkscape:version="0.92.0 r15299">
  <metadata
     id="metadata24">
    <rdf:RDF>
      <cc:Work
         rdf:about="">
        <dc:format>image/svg+xml</dc:format>
        <dc:type
           rdf:resource="http://purl.org/dc/dcmitype/StillImage" />
        <dc:title></dc:title>
      </cc:Work>
    </rdf:RDF>
  </metadata>
  <defs
     id="defs22">
    <clipPath
       clipPathUnits="userSpaceOnUse"
       id="clipPath18850">
      <path
         d="m 84.719,508.062 h 9.747 v 8.6 h -9.747 z"
         id="path18848"
         inkscape:connector-curvature="0" />
    </clipPath>
  </defs>
  <sodipodi:namedview
     pagecolor="#ffffff"
     bordercolor="#666666"
     borderopacity="1"
     objecttolerance="10"
     gridtolerance="10"
     guidetolerance="10"
     inkscape:pageopacity="0"
     inkscape:pageshadow="2"
     inkscape:window-width="1920"
     inkscape:window-height="1017"
     id="namedview20"
     showgrid="false"
     inkscape:zoom="42.841243"
     inkscape:cx="6.3162126"
     inkscape:cy="3.8144031"
     inkscape:window-x="-8"
     inkscape:window-y="-8"
     inkscape:window-maximized="1"
     inkscape:current-layer="svg18"
     fit-margin-top="0"
     fit-margin-left="0"
     fit-margin-right="0"
     fit-margin-bottom="0" />
  <g
     id="g4547">
    <g
       style="fill:#000000;fill-opacity:1"
       transform="matrix(0.35277777,0,0,-0.35277777,2.2246521,0.00174962)"
       id="g18840">
      <path
         inkscape:connector-curvature="0"
         id="path18842"
         style="fill:#000000;fill-opacity:1;fill-rule:nonzero;stroke:none"
         d="M 0,0 V -0.424 H -0.251 V 0 h -0.24 v -1.058 h 0.24 v 0.442 H 0 V -1.058 H 0.239 V 0 Z" />
    </g>
    <g
       style="fill:#000000;fill-opacity:1"
       id="g18844"
       transform="matrix(0.35277777,0,0,-0.35277777,-30.437525,181.67302)">
      <g
         style="fill:#000000;fill-opacity:1"
         clip-path="url(#clipPath18850)"
         id="g18846">
        <g
           style="fill:#000000;fill-opacity:1"
           transform="translate(93.2775,514.0787)"
           id="g18852">
          <path
             inkscape:connector-curvature="0"
             id="path18854"
             style="fill:#000000;fill-opacity:1;fill-rule:nonzero;stroke:none"
             d="m 0,0 c 0.011,-0.003 0.029,-0.003 0.042,-0.003 0.115,0 0.216,0.097 0.216,0.389 0,0.217 -0.066,0.349 -0.21,0.349 -0.017,0 -0.033,0 -0.048,-0.005 z M -0.24,0.88 C -0.179,0.892 -0.092,0.9 0.004,0.9 0.159,0.9 0.267,0.869 0.346,0.806 0.452,0.724 0.507,0.584 0.507,0.379 0.507,0.165 0.443,0.013 0.335,-0.069 0.253,-0.138 0.13,-0.171 -0.042,-0.171 c -0.075,0 -0.15,0.006 -0.198,0.011 z" />
        </g>
        <g
           style="fill:#000000;fill-opacity:1"
           transform="translate(91.7131,510.8517)"
           id="g18856">
          <path
             inkscape:connector-curvature="0"
             id="path18858"
             style="fill:#000000;fill-opacity:1;fill-rule:nonzero;stroke:none"
             d="m 0,0 c 0,0 -2.105,0.001 -2.105,0.001 0,0.232 0.671,0.533 1.24,0.862 0.245,0.142 1.208,0.584 1.208,1.602 0,0.945 -0.884,1.662 -1.892,1.662 -0.951,0 -1.777,-0.683 -1.777,-0.683 0,0 0.009,-0.029 0.24,-0.612 0.088,-0.224 0.307,-0.327 0.537,-0.214 0.31,0.153 0.696,0.357 1,0.357 0.412,0 0.698,-0.274 0.698,-0.569 0,-0.392 -0.411,-0.561 -1.101,-0.945 C -2.619,1.09 -3.397,0.509 -3.397,-0.502 v -0.236 c 0,-0.203 0.165,-0.368 0.368,-0.368 h 3.328 v 0.807 C 0.299,-0.134 0.165,0 0,0" />
        </g>
        <g
           style="fill:#000000;fill-opacity:1"
           transform="translate(86.9776,513.9623)"
           id="g18860">
          <path
             inkscape:connector-curvature="0"
             id="path18862"
             style="fill:#000000;fill-opacity:1;fill-rule:nonzero;stroke:none"
             d="m 0,0 c -0.385,0 -0.698,-0.316 -0.698,-0.705 0,-0.389 0.313,-0.705 0.698,-0.705 0.385,0 0.698,0.316 0.698,0.705 C 0.698,-0.316 0.385,0 0,0" />
        </g>
        <g
           style="fill:#000000;fill-opacity:1"
           transform="translate(86.9776,511.829)"
           id="g18864">
          <path
             inkscape:connector-curvature="0"
             id="path18866"
             style="fill:#000000;fill-opacity:1;fill-rule:nonzero;stroke:none"
             d="m 0,0 c -0.385,0 -0.698,-0.316 -0.698,-0.705 0,-0.389 0.313,-0.705 0.698,-0.705 0.385,0 0.698,0.316 0.698,0.705 C 0.698,-0.316 0.385,0 0,0" />
        </g>
      </g>
    </g>
  </g>
</svg>
